icons/change-font-size-16.svg

<?xml version="1.0" encoding="UTF-8"?><svg id="icons" xmlns="http://www.w3.org/2000/svg" viewBox="0 0 16 16"><defs><style>.cls-1{fill:none;}.cls-1,.cls-2{stroke-width:0px;}.cls-2{fill:#231f20;}</style></defs><rect class="cls-1" width="16" height="16"/><path class="cls-2" d="M15.09998,15h.90002L11.95001,1h-.90002l-4.04999,14h.90002l1.44-5h4.31995l1.44,5ZM9.62799,9l1.87201-6.5,1.87201,6.5h-3.74402ZM2.5,8L.25,15h.98999l.64001-2h2.23999l.64001,2h.98999l-2.25-7h-1ZM2.20001,12l.79999-2.5.79999,2.5h-1.59998Z"/></svg>

<svg xmlns="http://www.w3.org/2000/svg" viewBox="0 0 16 16"><path stroke-width="0" fill="none" d="M0 0h16v16H0z"/><path d="M15.1 15h.9L11.95 1h-.9L7 15h.9l1.44-5h4.32l1.44 5zM9.628 9L11.5 2.5 13.372 9H9.628zM2.5 8L.25 15h.99l.64-2h2.24l.64 2h.99L3.5 8h-1zm-.3 4L3 9.5l.8 2.5H2.2z" fill="#231f20" stroke-width="0"/></svg>
